static/assets/uswds/img/material-icons/car_repair.svg

<svg xmlns="http://www.w3.org/2000/svg" width="24" height="24" viewBox="0 0 24 24"><path d="M16.22 12c.68 0 1.22-.54 1.22-1.22 0-.67-.54-1.22-1.22-1.22S15 10.11 15 10.78c0 .68.55 1.22 1.22 1.22zm-9.66-1.22c0 .67.54 1.22 1.22 1.22S9 11.46 9 10.78c0-.67-.54-1.22-1.22-1.22s-1.22.55-1.22 1.22zM7.61 4 6.28 8h11.43l-1.33-4H7.61zm8.67-1s.54.01.92.54c.02.02.03.04.05.07.07.11.14.24.19.4.22.65 1.56 4.68 1.56 4.68v6.5c0 .45-.35.81-.78.81h-.44c-.43 0-.78-.36-.78-.81V14H7v1.19c0 .45-.35.81-.78.81h-.44c-.43 0-.78-.36-.78-.81v-6.5S6.34 4.67 6.55 4c.05-.16.12-.28.19-.4.03-.02.04-.04.06-.06.38-.53.92-.54.92-.54h8.56zM4 17.01h16V19h-7v3h-2v-3H4v-1.99z"/></svg>

<svg xmlns="http://www.w3.org/2000/svg" enable-background="new 0 0 24 24" height="24" viewBox="0 0 24 24" width="24"><g><rect fill="none" height="24" width="24"/></g><g><path d="M16.22,12c0.68,0,1.22-0.54,1.22-1.22c0-0.67-0.54-1.22-1.22-1.22S15,10.11,15,10.78C15,11.46,15.55,12,16.22,12z M6.56,10.78c0,0.67,0.54,1.22,1.22,1.22S9,11.46,9,10.78c0-0.67-0.54-1.22-1.22-1.22S6.56,10.11,6.56,10.78z M7.61,4L6.28,8h11.43 l-1.33-4H7.61z M16.28,3c0,0,0.54,0.01,0.92,0.54c0.02,0.02,0.03,0.04,0.05,0.07c0.07,0.11,0.14,0.24,0.19,0.4 C17.66,4.66,19,8.69,19,8.69v6.5c0,0.45-0.35,0.81-0.78,0.81h-0.44C17.35,16,17,15.64,17,15.19V14H7v1.19C7,15.64,6.65,16,6.22,16 H5.78C5.35,16,5,15.64,5,15.19v-6.5c0,0,1.34-4.02,1.55-4.69c0.05-0.16,0.12-0.28,0.19-0.4C6.77,3.58,6.78,3.56,6.8,3.54 C7.18,3.01,7.72,3,7.72,3H16.28z M4,17.01h16V19h-7v3h-2v-3H4V17.01z"/></g></svg>
